common/svg/personal-trainer-icon.svg

<svg fill="none" height="20" viewBox="0 0 20 20" width="20" xmlns="http://www.w3.org/2000/svg"><g fill="#000"><path d="m9.99973 6.40625c1.55337 0 2.81247-1.2592 2.81247-2.8125s-1.2591-2.8125-2.81247-2.8125c-1.55334 0-2.8125 1.2592-2.8125 2.8125s1.25916 2.8125 2.8125 2.8125z"/><path d="m17.6663 10.4375-3.4375-2.8125c-.2235-.18226-.5031-.28162-.7916-.28125h-6.87495c-.2884-.00037-.56806.09899-.79156.28125l-3.4375 2.8125c-.23527.1926-.39231.4643-.44172.7642-.04941.3.01219.6076.17328.8655l1.42594 2.7972c.15596.2499.40202.4303.68727.5039.28524.0735.58786.0346.84524-.1086.25738-.1434.44983-.3801.53754-.6614.08771-.2811.06397-.5853-.0663-.8495l-.72656-2.0731 1.48187-1.2113v8.4419c0 .0829.03292.1623.09153.221.05861.0585.13809.0915.22097.0915h6.87495c.083 0 .1624-.033.221-.0915.0586-.0587.0915-.1381.0915-.221v-8.4419l1.482 1.2125-.7266 2.0731c-.1304.2643-.154.5684-.0664.8496.0878.2812.2802.518.5376.6613s.56.1822.8453.1086c.2852-.0736.5312-.254.6872-.5038l1.4259-2.7973c.1615-.2579.2233-.5659.1739-.8661-.0494-.3003-.2067-.5722-.4423-.7648zm-5.4791.3438c0 .0829-.0329.1623-.0915.221-.0586.0585-.138.0915-.221.0915h-1.87496c-.08291 0-.16233-.033-.221-.0915-.05858-.0587-.0915-.1381-.0915-.221v-.93755c0-.08292.03292-.16233.0915-.221.05867-.05858.13809-.0915.221-.0915h1.87496c.083 0 .1624.03292.221.0915.0586.05867.0915.13808.0915.221z"/></g></svg>

<svg width="20" height="20" viewBox="0 0 20 20" fill="none" xmlns="http://www.w3.org/2000/svg">
<path d="M9.99973 6.40625C11.5531 6.40625 12.8122 5.14705 12.8122 3.59375C12.8122 2.04045 11.5531 0.78125 9.99973 0.78125C8.44639 0.78125 7.18723 2.04045 7.18723 3.59375C7.18723 5.14705 8.44639 6.40625 9.99973 6.40625Z" fill="black"/>
<path d="M17.6663 10.4375L14.2288 7.625C14.0053 7.44274 13.7257 7.34338 13.4372 7.34375H6.56225C6.27385 7.34338 5.99419 7.44274 5.77069 7.625L2.33319 10.4375C2.09792 10.6301 1.94088 10.9018 1.89147 11.2017C1.84206 11.5017 1.90366 11.8093 2.06475 12.0672L3.49069 14.8644C3.64665 15.1143 3.89271 15.2947 4.17796 15.3683C4.4632 15.4418 4.76582 15.4029 5.0232 15.2597C5.28058 15.1163 5.47303 14.8796 5.56074 14.5983C5.64845 14.3172 5.62471 14.013 5.49444 13.7488L4.76788 11.6757L6.24975 10.4644V18.9063C6.24975 18.9892 6.28267 19.0686 6.34128 19.1273C6.39989 19.1858 6.47937 19.2188 6.56225 19.2188H13.4372C13.5202 19.2188 13.5996 19.1858 13.6582 19.1273C13.7168 19.0686 13.7497 18.9892 13.7497 18.9063V10.4644L15.2317 11.6769L14.5051 13.75C14.3747 14.0143 14.3511 14.3184 14.4387 14.5996C14.5265 14.8808 14.7189 15.1176 14.9763 15.2609C15.2337 15.4042 15.5363 15.4431 15.8216 15.3695C16.1068 15.2959 16.3528 15.1155 16.5088 14.8657L17.9347 12.0684C18.0962 11.8105 18.158 11.5025 18.1086 11.2023C18.0592 10.902 17.9019 10.6301 17.6663 10.4375ZM12.1872 10.7813C12.1872 10.8642 12.1543 10.9436 12.0957 11.0023C12.0371 11.0608 11.9577 11.0938 11.8747 11.0938H9.99974C9.91683 11.0938 9.83741 11.0608 9.77874 11.0023C9.72016 10.9436 9.68724 10.8642 9.68724 10.7813V9.84375C9.68724 9.76083 9.72016 9.68142 9.77874 9.62275C9.83741 9.56417 9.91683 9.53125 9.99974 9.53125H11.8747C11.9577 9.53125 12.0371 9.56417 12.0957 9.62275C12.1543 9.68142 12.1872 9.76083 12.1872 9.84375V10.7813Z" fill="black"/>
</svg>
